Obsidian/actions/16s/font-select-symbolic.svg

<svg height="16" width="16.0002" xmlns="http://www.w3.org/2000/svg"><g fill="#bebebe" transform="translate(-241 -827)"><path d="m241 832v1c0 .25689.12983.52846.3125.71875l1.28125 1.28125-1.28125 1.28125c-.18267.19029-.3125.46186-.3125.71875v1h1c.30945 0 .55232-.0903.75-.28125l2.65625-2.71875-2.65625-2.71875c-.19768-.19095-.44055-.28125-.75-.28125z"/><path d="m257.0002 832v1c0 .25689-.12983.52846-.3125.71875l-1.28125 1.28125 1.28125 1.28125c.18267.19029.3125.46186.3125.71875v1h-1c-.30945 0-.55232-.0903-.75-.28125l-2.65625-2.71875 2.65625-2.71875c.19768-.19095.44055-.28125.75-.28125z"/><path d="m248 830v2h1.90625c-.0552 0 .0937.17104.0937.0937v.9375h-1c-1.71588 0-3.03787 1.10986-3.0625 2.46875-.0123.67944.3195 1.35323.875 1.8125s1.30959.71875 2.1875.71875h2 1v-1-4.9375c.00005-1.17114-.89686-2.0937-2.0937-2.0937zm1 5.03125h1v1h-1c-.51941 0-.78011-.14571-.90625-.25s-.15755-.17804-.15625-.25c.003-.14393.0927-.5 1.0625-.5z"/></g></svg>

<?xml version='1.0' encoding='UTF-8' standalone='no'?>
<!-- Created with Inkscape (http://www.inkscape.org/) -->

<svg xmlns:cc='http://creativecommons.org/ns#' xmlns:dc='http://purl.org/dc/elements/1.1/' sodipodi:docname='font-select-symbolic.svg' inkscape:export-filename='/home/sam/dev/RESOURCES/gnome-icon-theme-symbolic/src/gnome-stencils.png' inkscape:export-xdpi='90' inkscape:export-ydpi='90' height='16' id='svg7384' xmlns:inkscape='http://www.inkscape.org/namespaces/inkscape' xmlns:rdf='http://www.w3.org/1999/02/22-rdf-syntax-ns#' xmlns:sodipodi='http://sodipodi.sourceforge.net/DTD/sodipodi-0.dtd' xmlns:svg='http://www.w3.org/2000/svg' version='1.1' inkscape:version='0.48.5 r10040' width='16.0002' xmlns='http://www.w3.org/2000/svg'>
  <metadata id='metadata90'>
    <rdf:RDF>
      <cc:Work rdf:about=''>
        <dc:format>image/svg+xml</dc:format>
        <dc:type rdf:resource='http://purl.org/dc/dcmitype/StillImage'/>
        <dc:title>Gnome Symbolic Icon Theme</dc:title>
      </cc:Work>
    </rdf:RDF>
  </metadata>
  <sodipodi:namedview inkscape:bbox-nodes='false' inkscape:bbox-paths='true' bordercolor='#666666' borderopacity='1' inkscape:current-layer='layer12' inkscape:cx='11.855711' inkscape:cy='8.56615' gridtolerance='10' inkscape:guide-bbox='true' guidetolerance='10' id='namedview88' inkscape:object-nodes='false' inkscape:object-paths='false' objecttolerance='10' pagecolor='#3a3b39' inkscape:pageopacity='1' inkscape:pageshadow='2' showborder='false' showgrid='false' showguides='true' inkscape:snap-bbox='true' inkscape:snap-bbox-midpoints='false' inkscape:snap-global='true' inkscape:snap-grids='true' inkscape:snap-nodes='true' inkscape:snap-others='false' inkscape:snap-to-guides='true' inkscape:window-height='1375' inkscape:window-maximized='1' inkscape:window-width='2560' inkscape:window-x='0' inkscape:window-y='27' inkscape:zoom='1'>
    <inkscape:grid dotted='false' empspacing='2' enabled='true' id='grid4866' originx='0.0002px' originy='610px' snapvisiblegridlinesonly='true' spacingx='1px' spacingy='1px' type='xygrid' visible='true'/>
  </sodipodi:namedview>
  <title id='title9167'>Gnome Symbolic Icon Theme</title>
  <defs id='defs7386'/>
  <g inkscape:groupmode='layer' id='layer9' inkscape:label='status' style='display:inline' transform='translate(-241,-827)'/>
  <g inkscape:groupmode='layer' id='layer10' inkscape:label='devices' style='display:inline' transform='translate(-241,-827)'/>
  <g inkscape:groupmode='layer' id='layer11' inkscape:label='apps' transform='translate(-241,-827)'/>
  <g inkscape:groupmode='layer' id='layer13' inkscape:label='places' style='display:inline' transform='translate(-241,-827)'/>
  <g inkscape:groupmode='layer' id='layer14' inkscape:label='mimetypes' transform='translate(-241,-827)'/>
  <g inkscape:groupmode='layer' id='layer15' inkscape:label='emblems' style='display:inline' transform='translate(-241,-827)'/>
  <g inkscape:groupmode='layer' id='g71291' inkscape:label='emotes' style='display:inline' transform='translate(-241,-827)'/>
  <g inkscape:groupmode='layer' id='g4953' inkscape:label='categories' style='display:inline' transform='translate(-241,-827)'/>
  <g inkscape:groupmode='layer' id='layer12' inkscape:label='actions' style='display:inline' transform='translate(-241,-827)'>
    
    <path inkscape:connector-curvature='0' d='m 241,832 0,1 c 0,0.25689 0.12983,0.52846 0.3125,0.71875 L 242.59375,835 241.3125,836.28125 C 241.12983,836.47154 241,836.74311 241,837 l 0,1 1,0 c 0.30945,0 0.55232,-0.0903 0.75,-0.28125 L 245.40625,835 242.75,832.28125 C 242.55232,832.0903 242.30945,832 242,832 l -1,0 z' id='path26548' sodipodi:nodetypes='ccccccccccccc' style='font-size:medium;font-style:normal;font-variant:normal;font-weight:normal;font-stretch:normal;text-indent:0;text-align:start;text-decoration:none;line-height:normal;letter-spacing:normal;word-spacing:normal;text-transform:none;direction:ltr;block-progression:tb;writing-mode:lr-tb;text-anchor:start;color:#bebebe;fill:#bebebe;fill-opacity:1;stroke:none;stroke-width:2;marker:none;visibility:visible;display:inline;overflow:visible;enable-background:accumulate;font-family:Bitstream Vera Sans;-inkscape-font-specification:Bitstream Vera Sans'/>
    <path inkscape:connector-curvature='0' d='m 257.0002,832 0,1 c 0,0.25689 -0.12983,0.52846 -0.3125,0.71875 L 255.40645,835 l 1.28125,1.28125 c 0.18267,0.19029 0.3125,0.46186 0.3125,0.71875 l 0,1 -1,0 c -0.30945,0 -0.55232,-0.0903 -0.75,-0.28125 L 252.59395,835 255.2502,832.28125 C 255.44788,832.0903 255.69075,832 256.0002,832 l 1,0 z' id='path26550' sodipodi:nodetypes='ccccccccccccc' style='font-size:medium;font-style:normal;font-variant:normal;font-weight:normal;font-stretch:normal;text-indent:0;text-align:start;text-decoration:none;line-height:normal;letter-spacing:normal;word-spacing:normal;text-transform:none;direction:ltr;block-progression:tb;writing-mode:lr-tb;text-anchor:start;color:#bebebe;fill:#bebebe;fill-opacity:1;stroke:none;stroke-width:2;marker:none;visibility:visible;display:inline;overflow:visible;enable-background:accumulate;font-family:Bitstream Vera Sans;-inkscape-font-specification:Bitstream Vera Sans'/>
    <path inkscape:connector-curvature='0' d='m 248,830 0,2 1.90625,0 c -0.0552,0 0.0937,0.17104 0.0937,0.0937 l 0,0.9375 -1,0 c -1.71588,0 -3.03787,1.10986 -3.0625,2.46875 -0.0123,0.67944 0.3195,1.35323 0.875,1.8125 0.5555,0.45927 1.30959,0.71875 2.1875,0.71875 l 2,0 1,0 0,-1 0,-4.9375 C 252,830.92256 251.10309,830 249.90625,830 L 248,830 z m 1,5.03125 1,0 0,1 -1,0 c -0.51941,0 -0.78011,-0.14571 -0.90625,-0.25 -0.12614,-0.10429 -0.15755,-0.17804 -0.15625,-0.25 0.003,-0.14393 0.0927,-0.5 1.0625,-0.5 z' id='path11643-3-2-67' style='font-size:medium;font-style:normal;font-variant:normal;font-weight:normal;font-stretch:normal;text-indent:0;text-align:start;text-decoration:none;line-height:normal;letter-spacing:normal;word-spacing:normal;text-transform:none;direction:ltr;block-progression:tb;writing-mode:lr-tb;text-anchor:start;baseline-shift:baseline;color:#000000;fill:#bebebe;fill-opacity:1;stroke:none;stroke-width:2;marker:none;visibility:visible;display:inline;overflow:visible;enable-background:accumulate;font-family:Sans;-inkscape-font-specification:Sans'/>
  </g>
</svg>
